status/16/dialog-warning.svg

<?xml version="1.0" encoding="UTF-8" standalone="no"?>
<!-- Created with Inkscape (http://www.inkscape.org/) -->

<svg
   xmlns:svg="http://www.w3.org/2000/svg"
   xmlns="http://www.w3.org/2000/svg"
   xmlns:xlink="http://www.w3.org/1999/xlink"
   version="1.0"
   width="16"
   height="16"
   id="svg2509">
  <defs
     id="defs2511">
    <linearGradient
       id="linearGradient4873">
      <stop
         id="stop4875"
         style="stop-color:white;stop-opacity:1"
         offset="0" />
      <stop
         id="stop4877"
         style="stop-color:white;stop-opacity:0"
         offset="1" />
    </linearGradient>
    <linearGradient
       x1="63.397362"
       y1="-12.489107"
       x2="63.397362"
       y2="5.4675598"
       id="linearGradient2406"
       xlink:href="#linearGradient4873"
       gradientUnits="userSpaceOnUse"
       gradientTransform="matrix(0.7432394,0,0,0.7432224,-38.229789,10.609333)" />
    <linearGradient
       id="linearGradient2490">
      <stop
         id="stop2492"
         style="stop-color:#791235;stop-opacity:1"
         offset="0" />
      <stop
         id="stop2494"
         style="stop-color:#dd3b27;stop-opacity:1"
         offset="1" />
    </linearGradient>
    <linearGradient
       x1="18.379412"
       y1="44.980297"
       x2="18.379412"
       y2="3.0816143"
       id="linearGradient2411"
       xlink:href="#linearGradient2490"
       gradientUnits="userSpaceOnUse"
       gradientTransform="matrix(0.3685738,0,0,0.3685738,-0.84577,-0.84577)" />
    <linearGradient
       id="linearGradient3242">
      <stop
         id="stop3244"
         style="stop-color:#f8b17e;stop-opacity:1"
         offset="0" />
      <stop
         id="stop3246"
         style="stop-color:#e35d4f;stop-opacity:1"
         offset="0.26238" />
      <stop
         id="stop3248"
         style="stop-color:#c6262e;stop-opacity:1"
         offset="0.66093999" />
      <stop
         id="stop3250"
         style="stop-color:#690b54;stop-opacity:1"
         offset="1" />
    </linearGradient>
    <radialGradient
       cx="23.895569"
       cy="3.9900031"
       r="20.397499"
       fx="23.895569"
       fy="3.9900031"
       id="radialGradient2409"
       xlink:href="#linearGradient3242"
       gradientUnits="userSpaceOnUse"
       gradientTransform="matrix(0,0.8796593,-1.1611346,0,12.632931,-21.08413)" />
  </defs>
  <g
     id="layer1">
    <g
       id="g2533">
      <path
         d="m 8.0000011,0.50182793 c -4.1372321,0 -7.4981741,3.36093917 -7.4981741,7.49817177 0,4.1372333 3.360942,7.4981753 7.4981741,7.4981723 4.1372309,0 7.4981759,-3.360939 7.4981719,-7.4981723 0,-4.1372326 -3.360941,-7.49817177 -7.4981719,-7.49817177 z"
         id="path2555"
         style="fill:url(#radialGradient2409);fill-opacity:1;stroke:url(#linearGradient2411);stroke-width:1.00365424;stroke-linecap:round;stroke-linejoin:round;stroke-miterlimit:4;stroke-opacity:1;stroke-dasharray:none;stroke-dashoffset:0" />
      <path
         d="M 14.500001,7.9997709 C 14.500001,11.589737 11.589636,14.5 8.0000818,14.5 4.4101984,14.5 1.5000001,11.589705 1.5000001,7.9997709 c 0,-3.5898006 2.9101983,-6.4997695 6.5000817,-6.4997695 3.5895542,0 6.4999192,2.9099689 6.4999192,6.4997695 l 0,0 z"
         id="path2463"
         style="opacity:0.4;fill:none;stroke:url(#linearGradient2406);stroke-width:1;stroke-miterlimit:4;stroke-opacity:1;stroke-dasharray:none" />
    </g>
    <path
       d="m 7.0863923,3.7008431 c 0.2165,2.114806 0.464489,4.215057 0.648787,6.3381469 0.185367,0 0.402782,0 0.588149,0 0.152869,-2.0388399 0.399439,-4.0653589 0.577306,-6.1016709 0.090667,-0.48217 -0.156894,-1.054656 -0.666053,-1.171802 -0.503128,-0.147099 -1.065245,0.217165 -1.132146,0.737487 -0.011095,0.065318 -0.016045,0.13161 -0.016043,0.197839 l 0,0 z m -0.064166,8.5982049 c -0.022894,0.629497 0.669757,1.122961 1.261147,0.923386 0.572803,-0.146189 0.874508,-0.866135 0.580945,-1.377892 -0.262789,-0.529013 -1.033404,-0.703313 -1.476703,-0.298437 -0.224079,0.184096 -0.372603,0.458926 -0.365389,0.752944 l 0,-10e-7 z"
       id="text2315"
       style="font-size:62.4582634px;font-style:normal;font-variant:normal;font-weight:normal;font-stretch:normal;text-align:start;line-height:125%;writing-mode:lr-tb;text-anchor:start;fill:white;fill-opacity:1;stroke:none;font-family:Georgia" />
  </g>
</svg>

<?xml version="1.0" encoding="UTF-8" standalone="no"?>
<!-- Created with Inkscape (http://www.inkscape.org/) -->
<svg
   xmlns:svg="http://www.w3.org/2000/svg"
   xmlns="http://www.w3.org/2000/svg"
   xmlns:xlink="http://www.w3.org/1999/xlink"
   version="1.0"
   width="16"
   height="16"
   id="svg2509">
  <defs
     id="defs2511">
    <linearGradient
       id="linearGradient4873">
      <stop
         id="stop4875"
         style="stop-color:#ffffff;stop-opacity:1"
         offset="0" />
      <stop
         id="stop4877"
         style="stop-color:#ffffff;stop-opacity:0"
         offset="1" />
    </linearGradient>
    <linearGradient
       x1="63.397362"
       y1="-12.489107"
       x2="63.397362"
       y2="5.4675598"
       id="linearGradient2406"
       xlink:href="#linearGradient4873"
       gradientUnits="userSpaceOnUse"
       gradientTransform="matrix(0.7432394,0,0,0.7432224,-38.229789,10.609333)" />
    <linearGradient
       id="linearGradient2490">
      <stop
         id="stop2492"
         style="stop-color:#791235;stop-opacity:1"
         offset="0" />
      <stop
         id="stop2494"
         style="stop-color:#dd3b27;stop-opacity:1"
         offset="1" />
    </linearGradient>
    <linearGradient
       x1="18.379412"
       y1="44.980297"
       x2="18.379412"
       y2="3.0816143"
       id="linearGradient2411"
       xlink:href="#linearGradient2490"
       gradientUnits="userSpaceOnUse"
       gradientTransform="matrix(0.3685738,0,0,0.3685738,-0.84577,-0.84577)" />
    <linearGradient
       id="linearGradient3242">
      <stop
         id="stop3244"
         style="stop-color:#f8b17e;stop-opacity:1"
         offset="0" />
      <stop
         id="stop3246"
         style="stop-color:#e35d4f;stop-opacity:1"
         offset="0.26238" />
      <stop
         id="stop3248"
         style="stop-color:#c6262e;stop-opacity:1"
         offset="0.66093999" />
      <stop
         id="stop3250"
         style="stop-color:#690b54;stop-opacity:1"
         offset="1" />
    </linearGradient>
    <radialGradient
       cx="23.895569"
       cy="3.9900031"
       r="20.397499"
       fx="23.895569"
       fy="3.9900031"
       id="radialGradient2409"
       xlink:href="#linearGradient3242"
       gradientUnits="userSpaceOnUse"
       gradientTransform="matrix(0,0.8796593,-1.1611346,0,12.632931,-21.08413)" />
  </defs>
  <g
     id="layer1">
    <g
       id="g2533">
      <path
         d="M 8.0000011,0.50182793 C 3.862769,0.50182793 0.501827,3.8627671 0.501827,7.9999997 C 0.501827,12.137233 3.862769,15.498175 8.0000011,15.498172 C 12.137232,15.498172 15.498177,12.137233 15.498173,7.9999997 C 15.498173,3.8627671 12.137232,0.50182793 8.0000011,0.50182793 z"
         id="path2555"
         style="fill:url(#radialGradient2409);fill-opacity:1;stroke:url(#linearGradient2411);stroke-width:1.00365424;stroke-linecap:round;stroke-linejoin:round;stroke-miterlimit:4;stroke-dasharray:none;stroke-dashoffset:0;stroke-opacity:1" />
      <path
         d="M 14.500001,7.9997709 C 14.500001,11.589737 11.589636,14.5 8.0000818,14.5 C 4.4101984,14.5 1.5000001,11.589705 1.5000001,7.9997709 C 1.5000001,4.4099703 4.4101984,1.5000014 8.0000818,1.5000014 C 11.589636,1.5000014 14.500001,4.4099703 14.500001,7.9997709 L 14.500001,7.9997709 z"
         id="path2463"
         style="opacity:0.4;fill:none;fill-opacity:1;fill-rule:nonzero;stroke:url(#linearGradient2406);stroke-width:1;stroke-miterlimit:4;stroke-dasharray:none;stroke-opacity:1" />
    </g>
    <path
       d="M 7.0863923,3.7008431 C 7.3028923,5.8156491 7.5508813,7.9159001 7.7351793,10.03899 C 7.9205463,10.03899 8.1379613,10.03899 8.3233283,10.03899 C 8.4761973,8.0001501 8.7227673,5.9736311 8.9006343,3.9373191 C 8.9913013,3.4551491 8.7437403,2.8826631 8.2345813,2.7655171 C 7.7314533,2.6184181 7.1693363,2.9826821 7.1024353,3.5030041 C 7.0913403,3.5683221 7.0863903,3.6346141 7.0863923,3.7008431 L 7.0863923,3.7008431 z M 7.0222263,12.299048 C 6.9993323,12.928545 7.6919833,13.422009 8.2833733,13.222434 C 8.8561763,13.076245 9.1578813,12.356299 8.8643183,11.844542 C 8.6015293,11.315529 7.8309143,11.141229 7.3876153,11.546105 C 7.1635363,11.730201 7.0150123,12.005031 7.0222263,12.299049 L 7.0222263,12.299048 z"
       id="text2315"
       style="font-size:62.4582634px;font-style:normal;font-variant:normal;font-weight:normal;font-stretch:normal;text-align:start;line-height:125%;writing-mode:lr-tb;text-anchor:start;fill:#ffffff;fill-opacity:1;stroke:none;stroke-width:0.5;stroke-linecap:round;stroke-linejoin:round;stroke-miterlimit:4;stroke-dasharray:none;stroke-opacity:1;font-family:Georgia" />
  </g>
</svg>
